assets/Lobster/Flat/lobster_flat.svg

<svg width="32" height="32" viewBox="0 0 32 32" fill="none" xmlns="http://www.w3.org/2000/svg">
<path fill-rule="evenodd" clip-rule="evenodd" d="M11.84 20.7399C12.06 20.7399 12.26 20.5899 12.32 20.3699C12.39 20.0999 12.23 19.8299 11.97 19.7599L9.79 19.1799C9.53 19.1099 9.33 18.9199 9.24 18.6699L8.94 17.7899C8.85 17.5299 8.57 17.3899 8.3 17.4799C8.04 17.5699 7.9 17.8499 7.99 18.1199L8.29 18.9999C8.48 19.5599 8.95 19.9899 9.52 20.1499L11.7 20.7299C11.75 20.7399 11.8 20.7399 11.84 20.7399ZM20.1 20.83C19.88 20.83 19.68 20.68 19.62 20.46C19.55 20.19 19.71 19.92 19.97 19.85L22.15 19.27C22.41 19.2 22.61 19.01 22.7 18.76L23 17.88C23.09 17.62 23.37 17.48 23.64 17.57C23.9 17.66 24.04 17.94 23.95 18.21L23.65 19.09C23.46 19.65 22.99 20.08 22.42 20.24L20.24 20.82C20.18 20.83 20.14 20.83 20.1 20.83ZM11.42 27.36L13.48 25.3C14.08 24.7 15.05 24.7 15.66 25.3L15.67 25.31C15.7968 25.4368 15.8968 25.5805 15.97 25.7341C16.0432 25.5805 16.1432 25.4368 16.27 25.31L16.28 25.3C16.88 24.7 17.86 24.7 18.46 25.3L20.52 27.36C21.12 27.96 21.12 28.94 20.52 29.54L20.51 29.55C19.91 30.15 18.93 30.15 18.33 29.55L16.27 27.49C16.1432 27.3632 16.0432 27.2194 15.97 27.0658C15.8968 27.2194 15.7968 27.3632 15.67 27.49L13.61 29.55C13.01 30.15 12.03 30.15 11.43 29.55L11.42 29.54C10.82 28.94 10.82 27.96 11.42 27.36ZM21.55 26H22.47C22.74 26 22.98 25.77 22.98 25.49C22.98 25.21 22.76 24.99 22.48 24.99H21.56C21.15 24.99 20.76 24.82 20.48 24.53L19.66 23.66C19.47 23.46 19.15 23.45 18.95 23.64C18.75 23.83 18.74 24.15 18.93 24.35L19.75 25.22C20.21 25.72 20.87 26 21.55 26ZM23.08 21.99H19.4C19.13 21.99 18.9 21.77 18.9 21.49C18.9 21.22 19.12 20.99 19.4 20.99H23.08C23.65 20.99 24.17 20.72 24.49 20.26L25.05 19.39C25.2 19.16 25.51 19.09 25.74 19.24C25.97 19.39 26.04 19.7 25.89 19.93L25.32 20.82C24.81 21.56 23.98 21.99 23.08 21.99ZM22.33 23.9399C22.57 23.9999 22.8 24.0299 23.04 24.0299C23.68 24.0299 24.3 23.7999 24.79 23.3899L25.41 22.8299C25.61 22.6499 25.62 22.3299 25.44 22.1299C25.26 21.9299 24.94 21.9199 24.74 22.0999L24.14 22.6399C23.72 22.9999 23.14 23.1299 22.59 22.9799L19.04 22.0299C18.77 21.9599 18.5 22.1199 18.43 22.3799C18.36 22.6499 18.52 22.9199 18.78 22.9899L22.33 23.9399ZM10.39 25.91H9.47C9.2 25.91 8.97 25.68 8.97 25.4C8.97 25.12 9.19 24.9 9.47 24.9H10.38C10.79 24.9 11.18 24.73 11.46 24.44L12.28 23.57C12.47 23.37 12.79 23.36 12.99 23.55C13.19 23.74 13.2 24.06 13.01 24.26L12.19 25.13C11.73 25.63 11.07 25.91 10.39 25.91ZM8.86 21.8999H12.54C12.81 21.8999 13.04 21.6799 13.04 21.3999C13.04 21.1299 12.82 20.8999 12.54 20.8999H8.86C8.29 20.8999 7.77 20.6299 7.45 20.1699L6.89 19.2999C6.74 19.0699 6.43 18.9999 6.2 19.1499C5.97 19.2999 5.9 19.6099 6.05 19.8399L6.62 20.7299C7.13 21.4599 7.96 21.8999 8.86 21.8999ZM9.61 23.84C9.37 23.9 9.14 23.93 8.9 23.93C8.26 23.93 7.64 23.71 7.15 23.29L6.53 22.73C6.33 22.55 6.32 22.23 6.5 22.03C6.68 21.83 7 21.82 7.2 22L7.8 22.54C8.22 22.9 8.8 23.03 9.35 22.88L12.9 21.93C13.17 21.86 13.44 22.02 13.51 22.28C13.58 22.55 13.42 22.82 13.16 22.89L9.61 23.84Z" fill="#CA0B4A"/>
<path fill-rule="evenodd" clip-rule="evenodd" d="M6.64999 2.38999C6.64999 2.28999 6.68999 2.18999 6.75999 2.11999C6.85999 2.01999 6.98999 1.97999 7.12999 2.00999C8.17999 2.22999 8.96999 3.19999 8.96999 4.31999V8.26999H6.64999V2.38999ZM25.32 2.39999C25.32 2.28999 25.27 2.18999 25.2 2.11999C25.11 2.01999 24.97 1.97999 24.84 2.00999C23.79 2.22999 23 3.19999 23 4.31999V8.27999H25.32V2.39999Z" fill="#CA0B4A"/>
<path fill-rule="evenodd" clip-rule="evenodd" d="M6.11 6.01996H6.47C7.76283 6.01996 8.82748 7.00295 8.96503 8.27002H8.98V12.88C8.98 13.58 9.42 14.21 10.07 14.46L12.61 15.43L11.53 18.23L8.99 17.26C7.22395 16.583 6.02586 14.876 5.98129 12.989C3.75549 12.8309 2 10.9762 2 8.70996V7.19996V6.02996V5.48996C2 3.77996 3.24 2.30996 4.86 2.00996C5.03 1.97996 5.21 2.03996 5.33 2.15996C5.43 2.25996 5.49 2.39996 5.49 2.53996V5.39996C5.49 5.73996 5.76 6.01996 6.11 6.01996Z" fill="#F8312F"/>
<path fill-rule="evenodd" clip-rule="evenodd" d="M25.86 6.01996H25.5C24.1978 6.01996 23.1326 7.00295 23.0032 8.27002H22.99V12.88C22.99 13.58 22.55 14.21 21.9 14.46L19.36 15.43L20.44 18.23L22.98 17.26C24.746 16.583 25.9441 14.876 25.9887 12.989C28.2145 12.8309 29.97 10.9762 29.97 8.70996V7.19996V6.02996V5.48996C29.97 3.77996 28.73 2.30996 27.11 2.00996C26.94 1.97996 26.76 2.03996 26.64 2.15996C26.54 2.25996 26.48 2.39996 26.48 2.53996V5.39996C26.48 5.73996 26.21 6.01996 25.86 6.01996Z" fill="#F8312F"/>
<path fill-rule="evenodd" clip-rule="evenodd" d="M13.96 12.74C13.96 13.02 14.18 13.24 14.46 13.24C14.73 13.24 14.96 13.01 14.96 12.73V4.49C14.96 3.12 13.85 2 12.47 2C11.09 2 9.97 3.12 9.97 4.49L9.98 4.5C9.98 4.78 10.2 5 10.48 5C10.76 5 10.98 4.78 10.98 4.5L10.97 4.49C10.97 3.67 11.64 3 12.47 3C13.29 3 13.96 3.67 13.96 4.49V12.74ZM17.97 12.74C17.97 13.02 17.75 13.24 17.47 13.24C17.19 13.24 16.97 13.01 16.97 12.73V4.49C16.97 3.12 18.09 2 19.46 2C20.83 2 21.95 3.12 21.95 4.49L21.96 4.5C21.96 4.78 21.74 5 21.46 5C21.18 5 20.96 4.78 20.96 4.5L20.95 4.49C20.95 3.67 20.28 3 19.46 3C18.64 3 17.97 3.67 17.97 4.49V12.74Z" fill="#F8312F"/>
<path d="M19.29 11L17.7 9.08002C17.27 8.57002 16.64 8.27002 15.97 8.27002C15.3 8.27002 14.67 8.57002 14.24 9.08002L12.78 10.85C10.6 13.31 9.83999 16.75 10.83 19.94L13.36 28.04C13.69 29.11 14.63 29.89 15.75 29.98C17.03 30.08 18.19 29.29 18.57 28.08L21.11 19.93C22.09 16.81 21.37 13.44 19.29 11Z" fill="#F8312F"/>
<path d="M15.97 21.73C13.04 21.73 10.63 19.46 10.42 16.58C10.36 17.69 10.49 18.83 10.83 19.94L13.36 28.04C13.69 29.11 14.63 29.89 15.75 29.98C17.03 30.08 18.19 29.29 18.57 28.08L21.11 19.93C21.45 18.83 21.59 17.69 21.52 16.58C21.31 19.47 18.9 21.73 15.97 21.73Z" fill="#CA0B4A"/>
<path d="M15.97 25.43C14.43 25.43 13.05 24.81 12.04 23.8L13.36 28.0401C13.69 29.1101 14.63 29.89 15.75 29.98C17.03 30.08 18.19 29.29 18.57 28.08L19.91 23.8C18.89 24.81 17.5 25.43 15.97 25.43Z" fill="#F8312F"/>
<path fill-rule="evenodd" clip-rule="evenodd" d="M15 12.63C15 13.0442 14.6642 13.38 14.25 13.38C13.8358 13.38 13.5 13.0442 13.5 12.63C13.5 12.2158 13.8358 11.88 14.25 11.88C14.6642 11.88 15 12.2158 15 12.63ZM18.44 12.63C18.44 13.0442 18.1042 13.38 17.69 13.38C17.2758 13.38 16.94 13.0442 16.94 12.63C16.94 12.2158 17.2758 11.88 17.69 11.88C18.1042 11.88 18.44 12.2158 18.44 12.63Z" fill="#1C1C1C"/>
</svg>

<svg xmlns="http://www.w3.org/2000/svg" width="32" height="32" fill="none"><path fill="#CA0B4A" fill-rule="evenodd" d="M11.84 20.74a.5.5 0 0 0 .13-.98l-2.18-.58a.804.804 0 0 1-.55-.51l-.3-.88a.502.502 0 1 0-.95.33l.3.88c.19.56.66.99 1.23 1.15l2.18.58c.05.01.1.01.14.01Zm8.26.09a.5.5 0 0 1-.13-.98l2.18-.58c.26-.07.46-.26.55-.51l.3-.88a.502.502 0 1 1 .95.33l-.3.88c-.19.56-.66.99-1.23 1.15l-2.18.58c-.06.01-.1.01-.14.01Zm-8.68 6.53 2.06-2.06c.6-.6 1.57-.6 2.18 0l.01.01c.127.127.227.27.3.424a1.53 1.53 0 0 1 .3-.424l.01-.01c.6-.6 1.58-.6 2.18 0l2.06 2.06c.6.6.6 1.58 0 2.18l-.01.01c-.6.6-1.58.6-2.18 0l-2.06-2.06a1.53 1.53 0 0 1-.3-.424 1.53 1.53 0 0 1-.3.424l-2.06 2.06c-.6.6-1.58.6-2.18 0l-.01-.01c-.6-.6-.6-1.58 0-2.18ZM21.55 26h.92c.27 0 .51-.23.51-.51s-.22-.5-.5-.5h-.92c-.41 0-.8-.17-1.08-.46l-.82-.87a.504.504 0 0 0-.71-.02c-.2.19-.21.51-.02.71l.82.87c.46.5 1.12.78 1.8.78Zm1.53-4.01H19.4c-.27 0-.5-.22-.5-.5 0-.27.22-.5.5-.5h3.68c.57 0 1.09-.27 1.41-.73l.56-.87a.5.5 0 0 1 .69-.15c.23.15.3.46.15.69l-.57.89c-.51.74-1.34 1.17-2.24 1.17Zm-.75 1.95a2.733 2.733 0 0 0 2.46-.55l.62-.56c.2-.18.21-.5.03-.7-.18-.2-.5-.21-.7-.03l-.6.54c-.42.36-1 .49-1.55.34l-3.55-.95a.5.5 0 0 0-.61.35.5.5 0 0 0 .35.61l3.55.95Zm-11.94 1.97h-.92a.51.51 0 0 1-.5-.51c0-.28.22-.5.5-.5h.91c.41 0 .8-.17 1.08-.46l.82-.87c.19-.2.51-.21.71-.02.2.19.21.51.02.71l-.82.87c-.46.5-1.12.78-1.8.78ZM8.86 21.9h3.68c.27 0 .5-.22.5-.5 0-.27-.22-.5-.5-.5H8.86c-.57 0-1.09-.27-1.41-.73l-.56-.87a.5.5 0 0 0-.69-.15.5.5 0 0 0-.15.69l.57.89c.51.73 1.34 1.17 2.24 1.17Zm.75 1.94c-.24.06-.47.09-.71.09-.64 0-1.26-.22-1.75-.64l-.62-.56c-.2-.18-.21-.5-.03-.7.18-.2.5-.21.7-.03l.6.54c.42.36 1 .49 1.55.34l3.55-.95a.5.5 0 0 1 .61.35.5.5 0 0 1-.35.61l-3.55.95ZM6.65 2.39a.39.39 0 0 1 .48-.38c1.05.22 1.84 1.19 1.84 2.31v3.95H6.65V2.39Zm18.67.01c0-.11-.05-.21-.12-.28a.373.373 0 0 0-.36-.11C23.79 2.23 23 3.2 23 4.32v3.96h2.32V2.4Z" clip-rule="evenodd"/><path fill="#F8312F" fill-rule="evenodd" d="M6.11 6.02h.36c1.293 0 2.357.983 2.495 2.25h.015v4.61c0 .7.44 1.33 1.09 1.58l2.54.97-1.08 2.8-2.54-.97a4.718 4.718 0 0 1-3.009-4.271A4.29 4.29 0 0 1 2 8.71V5.49c0-1.71 1.24-3.18 2.86-3.48a.543.543 0 0 1 .63.53V5.4c0 .34.27.62.62.62ZM25.86 6.02h-.36a2.505 2.505 0 0 0-2.497 2.25h-.013v4.61c0 .7-.44 1.33-1.09 1.58l-2.54.97 1.08 2.8 2.54-.97a4.718 4.718 0 0 0 3.009-4.271A4.29 4.29 0 0 0 29.97 8.71V5.49c0-1.71-1.24-3.18-2.86-3.48a.543.543 0 0 0-.63.53V5.4c0 .34-.27.62-.62.62ZM13.96 12.74c0 .28.22.5.5.5.27 0 .5-.23.5-.51V4.49A2.49 2.49 0 0 0 12.47 2c-1.38 0-2.5 1.12-2.5 2.49l.01.01c0 .28.22.5.5.5s.5-.22.5-.5l-.01-.01a1.496 1.496 0 0 1 2.99 0v8.25Zm4.01 0c0 .28-.22.5-.5.5s-.5-.23-.5-.51V4.49c0-1.37 1.12-2.49 2.49-2.49s2.49 1.12 2.49 2.49l.01.01c0 .28-.22.5-.5.5s-.5-.22-.5-.5l-.01-.01c0-.82-.67-1.49-1.49-1.49s-1.49.67-1.49 1.49v8.25Z" clip-rule="evenodd"/><path fill="#F8312F" d="M19.29 11 17.7 9.08c-.43-.51-1.06-.81-1.73-.81-.67 0-1.3.3-1.73.81l-1.46 1.77a9.467 9.467 0 0 0-1.95 9.09l2.53 8.1a2.745 2.745 0 0 0 2.39 1.94c1.28.1 2.44-.69 2.82-1.9l2.54-8.15c.98-3.12.26-6.49-1.82-8.93Z"/><path fill="#CA0B4A" d="M15.97 21.73c-2.93 0-5.34-2.27-5.55-5.15-.06 1.11.07 2.25.41 3.36l2.53 8.1a2.745 2.745 0 0 0 2.39 1.94c1.28.1 2.44-.69 2.82-1.9l2.54-8.15c.34-1.1.48-2.24.41-3.35a5.559 5.559 0 0 1-5.55 5.15Z"/><path fill="#F8312F" d="M15.97 25.43c-1.54 0-2.92-.62-3.93-1.63l1.32 4.24a2.745 2.745 0 0 0 2.39 1.94c1.28.1 2.44-.69 2.82-1.9l1.34-4.28a5.582 5.582 0 0 1-3.94 1.63Z"/><path fill="#1C1C1C" fill-rule="evenodd" d="M15 12.63a.75.75 0 1 1-1.5 0 .75.75 0 0 1 1.5 0Zm3.44 0a.75.75 0 1 1-1.5 0 .75.75 0 0 1 1.5 0Z" clip-rule="evenodd"/></svg>
